!!!OTL: Die lustigen Gesellen (241a), S. 517
!!!id: T0429
**kern
*clefG2
*k[f#]
*G:
{8d
=1
4g
8f#
8e
8e
8d
8d
8d
=2
8g
8g
8f#
8a
8a
8g
8g}
=3
{8d
=4
4g
8f#
8e
8e
8d
8d
8d
=5
8g
8g
8f#
8a
8a
8g
8g}
=6
{16g
16a
=7
4b
8b
8b
4b
8a
8b
=8
8cc
8b
8cc
8b
4a}
8r
=9
{8g
=10
8f#
8a
8a
8a
8a
8dd
8dd
8cc
=11
8b
8b
8a
8a
8g}
4r
==
*-
!!!minrhy: 16
!!!meters: 4/4 ]  ZZ[4
!!!cut: Die lustigen Gesellen (241a), S. 517
!!!reg: Luxemburg
!!!trd: Singendes Volk, Esch-Alzette, 1937 posth.
!!!rhy1: X_  X__X_X_X_X_X_X_  X_X_X_X_X_X_X_   (x2)
!!!rhy2: X_  X__X_X_X_X_X_X_  X_X_X_X_X_X_X_
!!!key: T0429  16  G 4/4 ]  ZZ[4
!!!mod: HEPTATONIK IONISCH]  AMBITUS[8
!!!kad: 1121
!!!akz: 1-612_1-612_3342_-7231_
!!!fot: 'a__a__b__bs"
!!!for: 'a__a__b__c__
!!!fok: '~a_~a_^a_^__
!! PHRAS[AUFTAKTIG]
!!!fkt: Berufslied
!!!bem1: Blascheid, hhh Nikolaus Perl, 1902;
!!!bem2: StraPen, fff Witry, 10.1.1933
!! THILL; Mathias
!! PR[28] 2K[4] 2G[17] 3K[0] 3G[0] 4A[9] 4Ü[0] 5A[0] 6K[0] 6G[0]
!! 7K[0] 7G[0] 8A[0] MEHR[0] SI[30] ABS[54] SR[20] SP[9]
!! ST[15] 2k[7] 2g[26] 3k[6] 3g[4] 4d[0] 4ü[0] 5d[0] 6k[0] 6g[0]
!! 7k[0] 7g[0] 8d[0] mehr[0] si[43] dm[-13] sr[33] sp[9]
!! 1F[24] 2F[63] 3F[14] 4F[0] LF[0] 2P[0] 3P[0] 4P[0] TRI[0] DF[3] AB[59]
!! TF[0] U3K[0] U3[0] U4[0] U4Ü[0] U5[9] U6K[0] U6[4] U7K[0] U7[9]
!! N1[25] N2K[0] N2[24] N3K[0] N3[20] N4[4] N4Ü[0] N5[5] N6K[0] N6[0]
!!!n7k: 0] N7[0] O1[0] O2K[0] O2[0] O3K[0] O3[0] HÖ[0
